!!!COM:	Bartok
!!!OTL:	352_Bar-33/37/[26]1-[27]7
**kern	**dynam	**kern	**kern	**kern	**kern	**kern	**kern	**kern
*part8	*part8	*part7	*part6	*part5	*part4	*part3	*part2	*part1
*staff8	*S	*staff7	*staff6	*staff5	*staff4	*staff3	*staff2	*staff1
*I"Contrabass	*	*I"Violoncello	*I"Viola	*I"Violoncello solo	*I"Horn in F	*I"Bassoon	*I"Clarinet in A	*I"Oboe
*I'Cb.	*	*I'Vc.	*I'Vla.	*I'Vc.	*I'Hn.	*I'Bsn.	*I'Cl.	*I'Ob.
*clefF4	*	*clefF4	*clefC3	*clefG2	*clefG2	*clefF4	*clefG2	*clefG2
*k[f#c#]	*	*k[f#c#]	*k[f#c#]	*k[f#c#]	*	*k[f#c#]	*k[f#c#]	*k[f#c#]
*D:	*	*D:	*D:	*D:	*	*D:	*D:	*D:
*M2/4	*	*M2/4	*M2/4	*M2/4	*M2/4	*M2/4	*M2/4	*M2/4
=1	=1	=1	=1	=1	=1	=1	=1	=1
8FFF#L 8BBB	.	8FF#L 8BB	8F#L 8B	4ee	2G-X 2c-X	2BB	[2e	(8cc#L
8FFF#J 8BBB	.	8FF#J 8BB	8F#J 8B	.	.	.	.	8f#J)
4r	.	4r	4r	(8aaL	.	.	.	8eL
.	.	.	.	8gg#XJ)	.	.	.	[8f#J
=2	=2	=2	=2	=2	=2	=2	=2	=2
8AAA#XL	.	8EE#XL 8AA#X	8E#XL 8A#X	8dd')	2F 2B-X	2AA#X	2e_	8f#L]
8AAA#J	.	8EE#J 8AA#	8E#J 8A#	4ee	.	.	.	(8bJ
4r	.	4r	4r	.	.	.	.	8a#XL)
.	.	.	.	(8ggn	.	.	.	8eJ
=3	=3	=3	=3	=3	=3	=3	=3	=3
8FFF#L 8BBB	.	8FF#L 8BB	8F#L 8B	8ff#L)	2G-X 2c-X	2BB	2e]	4f#
8FFF#J 8BBB	.	8FF#J 8BB	8F#J 8B	8dd'J)	.	.	.	.
4r	.	4r	4r	4ee	.	.	.	(8anL
.	.	.	.	.	.	.	.	8g#XJ)
=4	=4	=4	=4	=4	=4	=4	=4	=4
8AAA#XL	.	8EE#XL 8AA#X	8E#XL 8A#X	(8ffnL	2F 2B-X	2AA#X	([2e	8e
8AAA#J	.	8EE#J 8AA#	8E#J 8A#	8dd#XJ)	.	.	.	4f#
4r	.	4r	4r	8ff'L)	.	.	.	.
.	.	.	.	[8eeJ	.	.	.	(8gn
=5	=5	=5	=5	=5	=5	=5	=5	=5
8FFF#L 8BBB	.	8FF#L 8BB	8F#L 8B	8eeL]	2G-X 2c-X	2BB	2e_	8e#XL)
8FFF#J 8BBB	.	8FF#J 8BB	8F#J 8B	(8ffnJ	.	.	.	8gJ
4r	.	4r	4r	8dd#XL)	.	.	.	4f#
.	.	.	.	8ff'J)	.	.	.	.
=6	=6	=6	=6	=6	=6	=6	=6	=6
8AAA#XL	.	8EE#XL 8AA#X	8E#XL 8A#X	4.ee	2F 2B-X	2AA#X	2e_	(8gnL
8AAA#J	.	8EE#J 8AA#	8E#J 8A#	.	.	.	.	8e#XJ)
4r	.	4r	4r	.	.	.	.	8gL
.	.	.	.	(8ffn	.	.	.	[8f#J
=7	=7	=7	=7	=7	=7	=7	=7	=7
8FFF#L 8BBB	<	8FF#L 8BB	8F#L 8B	8dd#XL)	2G-X 2c-X	2BB	4.e]	8f#L]
8FFF#J 8BBB	.	8FF#J 8BB	8F#J 8B	8ffn'J)	.	.	.	(8gJ
4r	>	4r	4r	4ee	.	.	.	8e#XL)
.	.	.	.	.	.	.	8e#X)	8gJ
=8	=8	=8	=8	=8	=8	=8	=8	=8
8AAA#XL	p	8EE#XL 8AA#X	8E#XL 8A#X	(8fnL	2F 2B-X	2AA#X	4.f#	8f#
8AAA#J	.	8EE#J 8AA#	8E#J 8A#	8d#XJ)	.	.	.	8r
4r	.	4r	4r	8f'L)	.	.	.	4r
.	.	.	.	8eJ	.	.	(8gn	.
=9	=9	=9	=9	=9	=9	=9	=9	=9
8FFF#L 8BBB	.	8FF#L 8BB	8F#L 8B	8eL	[2C-X [2G-X	4r	8e#XL)	2r
8FFF#J 8BBB	.	8FF#J 8BB	8F#J 8B	(8e-XJ	.	.	8gnJ	.
4r	.	4r	4r	8c#XL)	.	8FF#	4f#	.
.	.	.	.	8e-'J)	.	8r	.	.
=10	=10	=10	=10	=10	=10	=10	=10	=10
8FFF#L 8BBB	.	8FF#L 8BB	8F#L	8dL	2C-_ 2G-_	4r	(8fnL	2r
8FFF#J 8BBB	.	8FF#J 8BB	8F#J	(8d-XJ	.	.	8dJ)	.
4r	.	4r	4r	8BnL)	.	8FF#	8fL	.
.	.	.	.	8d-'J)	.	8r	8eJ	.
=11	=11	=11	=11	=11	=11	=11	=11	=11
!!linebreak:original
*M3/4	*	*M3/4	*M3/4	*M3/4	*M3/4	*M3/4	*M3/4	*M3/4
8FF#L 8BB	.	8FF#L 8BB	8F#L	(8cnL	2.C-X_ 2.G-X_	8r	(8e-XL	2.r
8FF#J 8BB	.	8FF#J 8BB	8F#J	8A#XJ)	.	4.FF#	8c#XJ)	.
4r	.	4r	4r	(8BL	.	.	8e-L	.
.	.	.	.	8AnJ	.	.	(8dJ	.
4r	.	4r	4r	8B'L)	.	4r	8B#XL)	.
.	.	.	.	(8B-XJ	.	.	(8c#J	.
=12	=12	=12	=12	=12	=12	=12	=12	=12
8FF#L 8BB	.	8FF#L 8BB	8F#L	8G#XL)	2.C-X_ 2.G-X_	8r	8BnL)	2.r
8FF#J 8BB	.	8FF#J 8BB	8F#J	(8AJ	.	4.FF#	8c#J	.
4r	.	4r	4r	8GnL	.	.	(8cnL	.
.	.	.	.	8A'J)	.	.	8A#XJ)	.
4r	.	4r	4r	4G#X	.	4r	(8BL	.
.	.	.	.	.	.	.	8G##XJ)	.
=13	=13	=13	=13	=13	=13	=13	=13	=13
8FF#L 8BB	.	8FF#L 8BB	8F#L	(8BL	2.C-X_ 2.G-X_	8r	8Bn	2.r
8FF#J 8BB	.	8FF#J 8BB	8F#J	8AnJ	.	4.FF#	4A#X	.
4r	.	4r	4r	8B'L)	.	.	.	.
.	.	.	.	(8B-XJ	.	.	(8c#	.
4r	.	4r	4r	8G#XL)	.	4r	8BL)	.
.	.	.	.	(8BnJ	.	.	8c#J	.
=14	=14	=14	=14	=14	=14	=14	=14	=14
*M2/4	*	*M2/4	*M2/4	*M2/4	*M2/4	*M2/4	*M2/4	*M2/4
8FF#L 8BB	.	8FF#L 8BB	8F#L	8AL)	2C-X] 2G-X]	4r	(8cnL	2r
8FF#J 8BB	.	8FF#J 8BB	8F#J	(8B-XJ	.	.	8A#XJ)	.
4r	.	4r	4r	8G#XL	.	8FF#	(8BL	.
.	.	.	.	8B-'J)	.	8r	8AnJ)	.
==	==	==	==	==	==	==	==	==
*-	*-	*-	*-	*-	*-	*-	*-	*-
!!!system-decoration: [(s1,s2,s3)]s4[(s5,s6,s7,s8)]
!!!ONB: Converted from MusicXML on 2019/06/05
